X: 30968
T: Oyster Wife's Rant, The
R: reel
M: 4/4
K: Adorian
e2ed e~A3|dedB GABd|e2ed efge|dBgB A2ag:|
edef g2fe|dedB dedB|edef g2fe|dBgB A2ag:|

